libs/icons/src/svg/search.svg

<svg width="16" height="16" viewBox="0 0 16 16" fill="none" xmlns="http://www.w3.org/2000/svg">
<path fill-rule="evenodd" clip-rule="evenodd" d="M1.97999 6.53999C1.97999 3.93999 4.07999 1.83999 6.67999 1.83999C9.27999 1.83999 11.38 3.93999 11.38 6.53999C11.38 9.13999 9.27999 11.24 6.67999 11.24C4.07999 11.24 1.97999 9.13999 1.97999 6.53999ZM6.67999 0.539993C3.37999 0.539993 0.679993 3.23999 0.679993 6.53999C0.679993 9.83999 3.37999 12.54 6.67999 12.54C7.97999 12.54 9.27999 12.14 10.28 11.34L14.18 15.24C14.48 15.54 14.88 15.54 15.08 15.24C15.38 14.94 15.38 14.54 15.08 14.34L11.18 10.44C12.08 9.43999 12.58 8.03999 12.58 6.53999C12.68 3.23999 9.97999 0.539993 6.67999 0.539993Z" fill="#202327"/>
</svg>

<svg xmlns="http://www.w3.org/2000/svg" viewBox="0 0 16 16" class="sageicon"><path fill-rule="evenodd" d="M1.98 6.54c0-2.6 2.1-4.7 4.7-4.7s4.7 2.1 4.7 4.7-2.1 4.7-4.7 4.7-4.7-2.1-4.7-4.7Zm4.7-6c-3.3 0-6 2.7-6 6s2.7 6 6 6c1.3 0 2.6-.4 3.6-1.2l3.9 3.9c.3.3.7.3.9 0 .3-.3.3-.7 0-.9l-3.9-3.9c.9-1 1.4-2.4 1.4-3.9.1-3.3-2.6-6-5.9-6Z"/></svg>
